X: 26204
T: McSweeney's Lament
R: waltz
M: 3/4
K: Adorian
cA|GE3E2|cE3E2|G2GFGA|G3dcA|GE3E2|cE3C2|D2E2G2|A3BcA|
GE3E2|cE3E2|G2GFGA|G3Bcd|e3dcB|ceA2G2|E2G2B2|A4B2||
c3edB|c2E2G2|c2e2f2|g3edc|B2G2G2|d2G2G2|B2G2B2|d3ged|
c3edB|c2E2G2|c2e2f2|g4(3fga|g2f2e2|dB3G2|A6|A4E2||
A3cBG|A2G2E2|cdedcB|c2E2E2|G3FGA|G2E2D2|E2c2Bc|B2G2E2|
A3cBG|A2G2E2|cdedcB|c2E2E2|e3dcB|ceA2G2|E2G2B2|A4||

